svgs/duotone/pallet-boxes.svg

<svg xmlns="http://www.w3.org/2000/svg" viewBox="0 0 640 512"><!--! Font Awesome Pro 6.6.0 by @fontawesome - https://fontawesome.com License - https://fontawesome.com/license (Commercial License) Copyright 2024 Fonticons, Inc. --><path class="fa-secondary" style="fill:var(--fa-secondary-color,inherit);opacity:var(--fa-secondary-opacity,.4);" d="M0 352c0 17.7 14.3 32 32 32l32 0 0 64-32 0c-17.7 0-32 14.3-32 32s14.3 32 32 32l64 0 224 0 224 0 64 0c17.7 0 32-14.3 32-32s-14.3-32-32-32l-32 0 0-64 32 0c17.7 0 32-14.3 32-32s-14.3-32-32-32l-64 0-224 0L96 320l-64 0c-17.7 0-32 14.3-32 32zm128 32l160 0 0 64-160 0 0-64zm224 0l160 0 0 64-160 0 0-64z"/><path class="fa-primary" style="fill:var(--fa-primary-color,inherit);opacity:var(--fa-primary-opacity,1);" d="M96 0C78.3 0 64 14.3 64 32l0 192c0 17.7 14.3 32 32 32l192 0c17.7 0 32-14.3 32-32l0-192c0-17.7-14.3-32-32-32L96 0zM416 64c-17.7 0-32 14.3-32 32l0 128c0 17.7 14.3 32 32 32l128 0c17.7 0 32-14.3 32-32l0-128c0-17.7-14.3-32-32-32L416 64z"/></svg>

<svg xmlns="http://www.w3.org/2000/svg" viewBox="0 0 640 512"><!--! Font Awesome Pro 6.4.2 by @fontawesome - https://fontawesome.com License - https://fontawesome.com/license (Commercial License) Copyright 2023 Fonticons, Inc. --><path class="fa-primary" style="fill:var(--fa-primary-color,inherit);opacity:var(--fa-primary-opacity,1);" d="M96 0C78.3 0 64 14.3 64 32V224c0 17.7 14.3 32 32 32H288c17.7 0 32-14.3 32-32V32c0-17.7-14.3-32-32-32H96zM416 64c-17.7 0-32 14.3-32 32V224c0 17.7 14.3 32 32 32H544c17.7 0 32-14.3 32-32V96c0-17.7-14.3-32-32-32H416z"/><path class="fa-secondary" style="fill:var(--fa-secondary-color,inherit);opacity:var(--fa-secondary-opacity,.4);" d="M32 320c-17.7 0-32 14.3-32 32s14.3 32 32 32H64v64H32c-17.7 0-32 14.3-32 32s14.3 32 32 32H96 320 544h64c17.7 0 32-14.3 32-32s-14.3-32-32-32H576V384h32c17.7 0 32-14.3 32-32s-14.3-32-32-32H544 320 96 32zm96 64H288v64H128V384zm224 0H512v64H352V384z"/></svg>
